packages/foundations/assets/icons/functional/images/logos/subway_16.svg

<svg width="16" height="16" viewBox="0 0 16 16" fill="none" xmlns="http://www.w3.org/2000/svg">
<g clip-path="url(#clip0_185_1730)">
<path fill-rule="evenodd" clip-rule="evenodd" d="M12 1.60001C13.3255 1.60001 14.4 2.67452 14.4 4.00001V12C14.4 13.3255 13.3255 14.4 12 14.4H3.99998C2.67449 14.4 1.59998 13.3255 1.59998 12V4.00001C1.59998 2.67452 2.67449 1.60001 3.99998 1.60001H12ZM3.99998 3.20001C3.58971 3.20001 3.25157 3.50884 3.20536 3.90671L3.19998 12C3.19998 12.4103 3.50881 12.7484 3.90668 12.7946L12 12.8C12.4102 12.8 12.7484 12.4912 12.7946 12.0933L12.8 4.00001C12.8 3.58974 12.4911 3.2516 12.0933 3.20539L3.99998 3.20001ZM6.93331 4.80001V8.72506C6.93331 9.44185 7.36838 9.86667 8.00007 9.86667C8.59461 9.86667 9.0148 9.49036 9.06218 8.84849L9.06664 4.80001H10.6666V8.87082C10.6666 10.5764 9.44367 11.2 8.00007 11.2C6.6046 11.2 5.4151 10.6159 5.33735 9.03765L5.33331 4.80001H6.93331Z" fill="#1A1C1F"/>
</g>
<defs>
<clipPath id="clip0_185_1730">
<rect width="16" height="16" fill="white"/>
</clipPath>
</defs>
</svg>

<svg xmlns="http://www.w3.org/2000/svg" width="16" height="16" fill="none"><g clip-path="url(#a)"><path fill="#1A1C1F" fill-rule="evenodd" d="M12 1.6A2.4 2.4 0 0 1 14.4 4v8a2.4 2.4 0 0 1-2.4 2.4H4A2.4 2.4 0 0 1 1.6 12V4A2.4 2.4 0 0 1 4 1.6zM4 3.2a.8.8 0 0 0-.795.707L3.2 12a.8.8 0 0 0 .707.795L12 12.8a.8.8 0 0 0 .795-.707L12.8 4a.8.8 0 0 0-.707-.795zm2.933 1.6v3.925c0 .717.435 1.142 1.067 1.142.595 0 1.015-.377 1.062-1.019L9.067 4.8h1.6v4.07c0 1.706-1.223 2.33-2.667 2.33-1.395 0-2.585-.584-2.663-2.162L5.333 4.8z" clip-rule="evenodd"/></g><defs><clipPath id="a"><path fill="#fff" d="M0 0h16v16H0z"/></clipPath></defs></svg>
